svgs/duotone/laptop-arrow-down.svg

<svg xmlns="http://www.w3.org/2000/svg" viewBox="0 0 640 512"><!-- Font Awesome Pro 6.0.0-alpha2 by @fontawesome - https://fontawesome.com License - https://fontawesome.com/license (Commercial License) --><defs><style>.fa-secondary{opacity:.4}</style></defs><path d="M624 384H16C7.25 384 0 391.25 0 400V416C0 451.25 28.75 480 64 480H576C611.25 480 640 451.25 640 416V400C640 391.25 632.75 384 624 384ZM512 352H576V80C576 53.625 554.375 32 528 32H344V96H512V352ZM128 96H296V32H112C85.625 32 64 53.625 64 80V352H128V96Z" class="fa-secondary"/><path d="M512 96V352H128V96H296V222.062L256.969 183.031C252.281 178.344 246.156 176 240 176S227.719 178.344 223.031 183.031C213.656 192.406 213.656 207.594 223.031 216.969L303.031 296.969C312.406 306.344 327.594 306.344 336.969 296.969L416.969 216.969C426.344 207.594 426.344 192.406 416.969 183.031S392.406 173.656 383.031 183.031L344 222.062V96H512Z" class="fa-primary"/></svg>

<svg xmlns="http://www.w3.org/2000/svg" viewBox="0 0 640 512"><!--! Font Awesome Pro 6.3.0 by @fontawesome - https://fontawesome.com License - https://fontawesome.com/license (Commercial License) Copyright 2023 Fonticons, Inc. --><defs><style>.fa-secondary{opacity:.4}</style></defs><path class="fa-primary" d="M512 96v256H128V96h168v126.1L256.1 183C252.3 178.3 246.2 176 240 176S227.7 178.3 223 183c-9.375 9.375-9.375 24.56 0 33.94l80 80c9.375 9.375 24.56 9.375 33.94 0l80-80c9.375-9.375 9.375-24.56 0-33.94s-24.56-9.375-33.94 0L344 222.1V96H512z"/><path class="fa-secondary" d="M624 384h-608C7.25 384 0 391.3 0 400V416c0 35.25 28.75 64 64 64h512c35.25 0 64-28.75 64-64v-16C640 391.3 632.8 384 624 384zM512 352h64V80C576 53.63 554.4 32 528 32h-184v64H512V352zM128 96h168V32H112C85.63 32 64 53.63 64 80V352h64V96z"/></svg>
